svg/fluentui-system-icons/ic_fluent_document_table_cube_24_filled.svg

<svg width="24" height="24" viewBox="0 0 24 24" fill="none" xmlns="http://www.w3.org/2000/svg">
<path d="M11.7242 14.5C11.6604 14.37 11.5853 14.2459 11.5 14.1289V13H15.25C15.3881 13 15.5 13.1119 15.5 13.25V14.5H11.7242ZM11.9805 17.5V16H15.5V17.25C15.5 17.3881 15.3881 17.5 15.25 17.5H11.9805ZM11.9805 19H15.25C16.2165 19 17 18.2165 17 17.25V13.25C17 12.2835 16.2165 11.5 15.25 11.5H8.75C8.33208 11.5 7.94837 11.6465 7.64744 11.8909L7.0985 11.6165C6.39468 11.2646 5.56625 11.2646 4.86243 11.6165L4 12.0477V4C4 2.89543 4.89543 2 6 2H12V8C12 9.10457 12.8954 10 14 10H20V20C20 21.1046 19.1046 22 18 22H10.5675L10.5985 21.9845C11.4455 21.561 11.9805 20.6954 11.9805 19.7484V19ZM13.5 2.5V8C13.5 8.27614 13.7239 8.5 14 8.5H19.5L13.5 2.5ZM0.980469 15.6025V19.7484C0.980469 20.3166 1.30147 20.836 1.80965 21.0901L5.30965 22.8401C5.73194 23.0512 6.229 23.0512 6.65129 22.8401L10.1513 21.0901C10.6595 20.836 10.9805 20.3166 10.9805 19.7484V15.6025C10.9805 15.0344 10.6595 14.515 10.1513 14.2609L6.65129 12.5109C6.229 12.2998 5.73194 12.2998 5.30965 12.5109L1.80965 14.2609C1.30147 14.515 0.980469 15.0344 0.980469 15.6025ZM2.75686 16.3727C2.50987 16.2492 2.40976 15.9489 2.53326 15.7019C2.65675 15.4549 2.95709 15.3548 3.20408 15.4783L5.98047 16.8665L8.75686 15.4783C9.00385 15.3548 9.30419 15.4549 9.42768 15.7019C9.55118 15.9489 9.45107 16.2492 9.20407 16.3727L6.48047 17.7345V20.6755C6.48047 20.9516 6.25661 21.1755 5.98047 21.1755C5.70433 21.1755 5.48047 20.9516 5.48047 20.6755V17.7345L2.75686 16.3727Z" fill="#212121"/>
</svg>

<svg xmlns="http://www.w3.org/2000/svg" width="24" height="24"><path d="M11.724 14.5a2.499 2.499 0 0 0-.224-.371V13h3.75a.25.25 0 0 1 .25.25v1.25h-3.776Zm.256 3V16h3.52v1.25a.25.25 0 0 1-.25.25h-3.27Zm0 1.5h3.27A1.75 1.75 0 0 0 17 17.25v-4a1.75 1.75 0 0 0-1.75-1.75h-6.5c-.418 0-.802.146-1.103.39l-.549-.274a2.5 2.5 0 0 0-2.236 0L4 12.049V4a2 2 0 0 1 2-2h6v6a2 2 0 0 0 2 2h6v10a2 2 0 0 1-2 2h-7.432l.03-.015a2.5 2.5 0 0 0 1.382-2.237V19ZM13.5 2.5V8a.5.5 0 0 0 .5.5h5.5l-6-6ZM.98 15.602v4.146a1.5 1.5 0 0 0 .83 1.342l3.5 1.75a1.5 1.5 0 0 0 1.341 0l3.5-1.75a1.5 1.5 0 0 0 .83-1.342v-4.146a1.5 1.5 0 0 0-.83-1.341l-3.5-1.75a1.5 1.5 0 0 0-1.341 0l-3.5 1.75a1.5 1.5 0 0 0-.83 1.341Zm1.777.77a.5.5 0 1 1 .447-.894l2.776 1.388 2.777-1.388a.5.5 0 1 1 .447.895L6.48 17.734v2.941a.5.5 0 0 1-1 0v-2.94l-2.723-1.362Z"/></svg>
